!!!OTL: Der gute Hirt (2-7) S. 31f
!!!id: P0880
**kern
*clefG2
*k[f#]
*e:
*M3/4
{4d
4e
4a
=2
4.g
8f
4e}
=3
{4g
4.g
16e
16d
=4
4.c
8d
4e}
=5
{8e
8d
4e
4a
=6
4.g
8f
4e}
=7
*M4/4
{4.cc
16dd
16cc
4.b
16cc
16b
=8
*M3/4
4a
4g#
4a}
=9
{8b
8a
4b
4ee
=10
4.dd
8cc
4b
=11
8cc
8b
4a
4b}
=12
{8b
8a
4b
4ee
=13
4.dd
8cc
4b
=14
8cc
8b
4a
4b}
=15
*M4/4
{4.gg
8dd
2dd
=16
4.ee
8cc
2b}
=17
*M3/4
{4dd
4dd
8b
8a
=18
4g
4a
4b}
=19
{4b
=20
*M4/4
4.a
8g
4f#
4a
=21
*M3/4
4g
4f#
4e}
=22
{16e
8g
8a
8g
16e
=23
*M4/4
4f#
4e
16e
8f#
8e
8d#
16e
=24
*M3/4
2e}
4r
=25
{8g
8f#
=26
*M4/4
4e
4B
4e
4f#
=27
*M3/4
8g
8b
8a
8g
4f#}
=28
{8f#
8g
=29
4.a
16b
16a
8g
8f#
=30
*M4/4
4e
16e
8d#
8e
8f#
16e
4e}
=31
{8g
8f#
=32
4e
4B
4e
4f#
=33
*M3/4
8g
8b
8a
8g
4f#}
=34
{8f#
8g
=35
4.a
16b
16a
8g
8f#
=36
*M4/4
4e
16e
8d#
8e
8f#
16e
4e}
=37
{8g
8a
=38
4b
4b
8.b
16a
8g
8a
=39
4a
4a}
=40
{8g
8b
=41
4b
4b
8.b
16a
8g
8b
=42
*M3/4
4b
2b}
=43
{8g
8f#
=44
*M4/4
4e
4B
4e
4f#
=45
*M3/4
8g
8b
8a
8g
4f#}
=46
{8f#
8g
=47
4.a
16b
16a
8g
8f#
=48
4e
16e
8d#
8e
8f#
16e
=49yy
2e}
==
*-
!!!minrhy: 16
!!!meters: 3/4 4/4 ]  ZZ[18
!!!cut: Der gute Hirt (2-7) S. 31f
!!!reg: Lothringen
!!!trd: PINCK, Louis: Verklingende Weisen, Bd 2, Metz 1928
!!!rhy1: X__X__X__  X__.X_X__
!!!rhy2: X__X__.XX  X__.X_X__
!!!key: P0880  16  E 3/4 4/4 ]  ZZ[18
!!!mod: ZEHNTONSKALA ]  AMBITUS[13b
!!!kad: 111455551121214521
!!!akz1: -7b3b_3b-6b_13b_6b54_57b6b_57b6b_+3b7b+15_7b3b5_423b1_21_113b2_411_113b2_
!!!akz2: 411_554_5555_113b2_411_
!! ____411_554_5555_113b2_411_]
!!!fot: 'a__b__aw_c__as"as"d__bs_e__f__g__h__g__h__fs'i__g__h__
!!!for: 'a__b__c__d__cw_cw_e__f__g__h__i__j__i__j__k__kv_i__jv_
!!!fok: '^a_Vd_^__\__^__^__Sd_Vd_\__\__Sd_^d_Sd_^d_/__~a_Sd_^d_
!! PHRAS[GEMISCHTTAKTIG]
!!!fkt: geistliche, religiöse Lieder
!! LOTH VKL
!! PR[11] 2K[7] 2G[21] 3K[1] 3G[4] 4A[6] 4Ü[0] 5A[0] 6K[0] 6G[1]
!! 7K[0] 7G[0] 8A[0] MEHR[0] SI[41] ABS[71] SR[28] SP[13]
!! ST[12] 2k[8] 2g[32] 3k[3] 3g[1] 4d[1] 4ü[0] 5d[1] 6k[0] 6g[0]
!! 7k[0] 7g[0] 8d[0] mehr[0] si[48] dm[-7] sr[41] sp[7]
!! 1F[6] 2F[58] 3F[28] 4F[0] LF[0] 2P[6] 3P[3] 4P[0] TRI[0] DF[5] AB[72]
!! TF[0] U3K[0] U3[0] U4[0] U4Ü[0] U5[4] U6K[0] U6[0] U7K[0] U7[3]
!! N1[22] N2K[0] N2[18] N3K[0] N3[21] N4[13] N4Ü[0] N5[14] N6K[0] N6[6]
!!!n7k: 0] N7[0] O1[0] O2K[0] O2[0] O3K[0] O3[0] HÖ[0
